X: 1046
T: Musselborough, or
T: Jenny bang the Weaver
P: Longways for as many as will
R: reel
B: "Caledonian Country Dances" printed by John Walsh for John Johnson, London
S: http://imslp.org/wiki/Caledonian_Country_Dances_with_a_Thorough_Bass_(Various)
Z: 2013 John Chambers <jc:trillian.mit.edu>
N: "Each Strain twice." Repeats changed to match this instruction.
M: C|
L: 1/8
K: D
% - - - - - - - - - - - - - - - - - - - - - - - - -
V: 1
g2 |: fA A/A/A A/A/A Ag | fA A/A/A f2ed | fB B/B/B B/B/B Bd | ABde f2ed :|
|: d>ef>d e>fg>e | d>ef>a e2dB | d>ef>d e>fg>e | f/g/a Af f2ed :|
% - - - - - - - - - - - - - - - - - - - - - - - - -
V: 2 clef=bass middle=d
z2 |: d2z2 A2c2 | d2c2 d2z2 | B2z2 G2B2 | cBA2 d2z2 :|
|: d2z2 A2Bc | d2z2 c2B2 | z2d2 A2Bc | d2z2 D2z2 :|
% - - - - - - - - - - - - - - - - - - - - - - - - -
%%center Each Strain twice.
%%begintext align
The 1st Man and 2d Wo. take Hands and swing .|
Then the 2d Cu. being at top they do the same :|
then 1st Cu. lead down to the bottom and cast up to the top and turn .|
then Right and Left.
%%endtext

%%sep 1 1 500
%%sep 1 1 500
